Numix/32x32/devices/battery-full-charging.svg

<?xml version="1.0" encoding="UTF-8" standalone="no"?>
<svg
   xmlns:dc="http://purl.org/dc/elements/1.1/"
   xmlns:cc="http://creativecommons.org/ns#"
   xmlns:rdf="http://www.w3.org/1999/02/22-rdf-syntax-ns#"
   xmlns:svg="http://www.w3.org/2000/svg"
   xmlns="http://www.w3.org/2000/svg"
   xmlns:xlink="http://www.w3.org/1999/xlink"
   xmlns:sodipodi="http://sodipodi.sourceforge.net/DTD/sodipodi-0.dtd"
   xmlns:inkscape="http://www.inkscape.org/namespaces/inkscape"
   width="32"
   height="32"
   viewBox="0 0 32 32"
   id="svg2"
   version="1.1"
   inkscape:version="0.91 r"
   sodipodi:docname="battery-full-charging.svg">
  <metadata
     id="metadata10">
    <rdf:RDF>
      <cc:Work
         rdf:about="">
        <dc:format>image/svg+xml</dc:format>
        <dc:type
           rdf:resource="http://purl.org/dc/dcmitype/StillImage" />
        <dc:title />
      </cc:Work>
    </rdf:RDF>
  </metadata>
  <defs
     id="defs8">
    <linearGradient
       inkscape:collect="always"
       xlink:href="#linearGradient3784"
       id="linearGradient3790"
       x1="22.454058"
       y1="-7"
       x2="22.454058"
       y2="23"
       gradientUnits="userSpaceOnUse" />
    <linearGradient
       id="linearGradient3784">
      <stop
         style="stop-color:#839496;stop-opacity:1;"
         offset="0"
         id="stop3786" />
      <stop
         style="stop-color:#667678;stop-opacity:1;"
         offset="1"
         id="stop3788" />
    </linearGradient>
    <linearGradient
       gradientTransform="matrix(0.75,0,0,0.75,-1.9999989,-1.9999999)"
       y2="23"
       x2="22.454058"
       y1="-7"
       x1="22.454058"
       gradientUnits="userSpaceOnUse"
       id="linearGradient3011"
       xlink:href="#linearGradient3784"
       inkscape:collect="always" />
  </defs>
  <sodipodi:namedview
     pagecolor="#ffffff"
     bordercolor="#666666"
     borderopacity="1"
     objecttolerance="10"
     gridtolerance="10"
     guidetolerance="10"
     inkscape:pageopacity="0"
     inkscape:pageshadow="2"
     inkscape:window-width="1366"
     inkscape:window-height="747"
     id="namedview6"
     showgrid="true"
     inkscape:zoom="14.75"
     inkscape:cx="6.5788212"
     inkscape:cy="11.85114"
     inkscape:window-x="0"
     inkscape:window-y="21"
     inkscape:window-maximized="1"
     inkscape:current-layer="svg2">
    <inkscape:grid
       type="xygrid"
       id="grid3010" />
  </sodipodi:namedview>
  <path
     inkscape:connector-curvature="0"
     style="fill:url(#linearGradient3011);fill-opacity:1;stroke:none"
     d="m 14.5,4.0000001 c -0.831,0 -1.499999,0.6690001 -1.499999,1.5000004 l 0,0.75 -1.5,0 c -0.831,0 -1.5,0.669 -1.5,1.5 l 0,18.7500005 c 0,0.831 0.669,1.5 1.5,1.5 l 8.999999,0 c 0.831,0 1.5,-0.669 1.5,-1.5 L 22,7.7500005 c 0,-0.831 -0.669,-1.5 -1.5,-1.5 l -1.5,0 0,-0.75 C 19,4.6690002 18.331,4.0000001 17.5,4.0000001 l -3,0 z"
     id="rect2995" />
  <path
     style="fill:#6fa7ce;fill-opacity:1;stroke:none"
     d="m 11.5,6.25 9,0 c 0.831,0 1.5,0.6631533 1.5,1.4868909 L 22,26.513109 C 22,27.336847 21.331,28 20.5,28 l -9,0 C 10.669,28 10,27.336847 10,26.513109 L 10,7.7368909 C 10,6.9131533 10.669,6.25 11.5,6.25 Z"
     id="rect3770"
     inkscape:connector-curvature="0"
     sodipodi:nodetypes="sssssssss" />
  <rect
     style="opacity:0.2;fill:#ffffff;fill-opacity:1;stroke:none"
     id="rect3772"
     width="2"
     height="21.75"
     x="18"
     y="6.25"
     ry="0" />
  <rect
     style="opacity:0.2;fill:#ffffff;fill-opacity:1;stroke:none"
     id="rect3774"
     width="2"
     height="2.25"
     x="16"
     y="4" />
  <path
     style="fill:#ffffff;fill-opacity:1;fill-rule:evenodd"
     d="m 19,9.0291208 -8,9.0000002 5,0 -3,7 8,-10 -3.75,0 L 19,9.0291208 Z"
     id="path8"
     inkscape:connector-curvature="0" />
</svg>

<?xml version="1.0" encoding="UTF-8" standalone="no"?>
<svg
   xmlns:dc="http://purl.org/dc/elements/1.1/"
   xmlns:cc="http://creativecommons.org/ns#"
   xmlns:rdf="http://www.w3.org/1999/02/22-rdf-syntax-ns#"
   xmlns:svg="http://www.w3.org/2000/svg"
   xmlns="http://www.w3.org/2000/svg"
   xmlns:xlink="http://www.w3.org/1999/xlink"
   xmlns:sodipodi="http://sodipodi.sourceforge.net/DTD/sodipodi-0.dtd"
   xmlns:inkscape="http://www.inkscape.org/namespaces/inkscape"
   width="32"
   height="32"
   viewBox="0 0 32 32"
   id="svg2"
   version="1.1"
   inkscape:version="0.91 r"
   sodipodi:docname="battery-full-charging.svg">
  <metadata
     id="metadata10">
    <rdf:RDF>
      <cc:Work
         rdf:about="">
        <dc:format>image/svg+xml</dc:format>
        <dc:type
           rdf:resource="http://purl.org/dc/dcmitype/StillImage" />
        <dc:title />
      </cc:Work>
    </rdf:RDF>
  </metadata>
  <defs
     id="defs8">
    <linearGradient
       inkscape:collect="always"
       xlink:href="#linearGradient3784"
       id="linearGradient3790"
       x1="22.454058"
       y1="-7"
       x2="22.454058"
       y2="23"
       gradientUnits="userSpaceOnUse" />
    <linearGradient
       id="linearGradient3784">
      <stop
         style="stop-color:#839496;stop-opacity:1;"
         offset="0"
         id="stop3786" />
      <stop
         style="stop-color:#667678;stop-opacity:1;"
         offset="1"
         id="stop3788" />
    </linearGradient>
    <linearGradient
       gradientTransform="matrix(0.75,0,0,0.75,-1.9999989,-1.9999999)"
       y2="23"
       x2="22.454058"
       y1="-7"
       x1="22.454058"
       gradientUnits="userSpaceOnUse"
       id="linearGradient3011"
       xlink:href="#linearGradient3784"
       inkscape:collect="always" />
    <linearGradient
       inkscape:collect="always"
       xlink:href="#linearGradient3784"
       id="linearGradient4157"
       gradientUnits="userSpaceOnUse"
       x1="22.454058"
       y1="-7"
       x2="22.454058"
       y2="23"
       gradientTransform="matrix(0.75,0,0,0.75,-1.9999989,-1.9999999)" />
    <linearGradient
       inkscape:collect="always"
       xlink:href="#linearGradient3784"
       id="linearGradient4159"
       gradientUnits="userSpaceOnUse"
       x1="22.454058"
       y1="-7"
       x2="22.454058"
       y2="23"
       gradientTransform="matrix(0.75,0,0,0.75,-1.9999989,-1.9999999)" />
  </defs>
  <sodipodi:namedview
     pagecolor="#ffffff"
     bordercolor="#666666"
     borderopacity="1"
     objecttolerance="10"
     gridtolerance="10"
     guidetolerance="10"
     inkscape:pageopacity="0"
     inkscape:pageshadow="2"
     inkscape:window-width="1920"
     inkscape:window-height="1056"
     id="namedview6"
     showgrid="true"
     inkscape:zoom="16"
     inkscape:cx="-9.5756158"
     inkscape:cy="19.410373"
     inkscape:window-x="0"
     inkscape:window-y="24"
     inkscape:window-maximized="1"
     inkscape:current-layer="svg2">
    <inkscape:grid
       type="xygrid"
       id="grid3010" />
  </sodipodi:namedview>
  <path
     style="fill:url(#linearGradient3011);fill-opacity:1;stroke:none"
     d="M 14.5 4 C 13.669 4 13 4.6689997 13 5.5 L 13 6 L 11.5 6 C 10.669 6 10 6.669 10 7.5 L 10 26.5 C 10 27.331 10.669 28 11.5 28 L 20.5 28 C 21.331 28 22 27.331 22 26.5 L 22 7.5 C 22 6.669 21.331 6 20.5 6 L 19 6 L 19 5.5 C 19 4.6689997 18.331 4 17.5 4 L 14.5 4 z "
     id="rect2995" />
  <rect
     ry="1.5"
     rx="1.5"
     y="6"
     x="10"
     height="22"
     width="12"
     id="rect4175"
     style="opacity:1;fill:#6fa7ce;fill-opacity:1;fill-rule:nonzero;stroke:none;stroke-width:3;stroke-linecap:butt;stroke-linejoin:miter;stroke-miterlimit:4;stroke-dasharray:none;stroke-dashoffset:0;stroke-opacity:1" />
  <rect
     style="opacity:0.2;fill:#6fa7ce;fill-opacity:1;fill-rule:nonzero;stroke:none;stroke-width:3;stroke-linecap:butt;stroke-linejoin:miter;stroke-miterlimit:4;stroke-dasharray:none;stroke-dashoffset:0;stroke-opacity:1"
     id="rect4173"
     width="12"
     height="22"
     x="10"
     y="6"
     rx="1.5"
     ry="1.5" />
  <rect
     style="opacity:0.2;fill:#ffffff;fill-opacity:1;stroke:none"
     id="rect3774"
     width="2"
     height="2.0000005"
     x="16"
     y="3.9999995" />
  <rect
     style="opacity:0.2;fill:#ffffff;fill-opacity:1;stroke:none"
     id="rect3772"
     width="2"
     height="22"
     x="18"
     y="6"
     ry="0" />
  <path
     style="fill:#ffffff;fill-opacity:1;fill-rule:evenodd"
     d="M 19,9.0000002 11,18 16,18 13,25 21,15 17.25,15 19,9.0000002 Z"
     id="path8"
     inkscape:connector-curvature="0" />
</svg>
